X:2581
T:High Spy
O:england
S:Chris Dewhurst 1989, via Phil Rowe
M:6/8
K:D
A|"D"a2a "A7"gfe|"Bm"dcB "D""f#"A2F|"G"GAB "D""f#"Ade|"Em"faf "A7"e2A|
"D"a2a "A7"gfe|"Bm"dcB "D""f#"A2F|"G"GAB "D""a"Adf|"A"e3 "D"d2::
"A"eAe efg|"D"f2g a3|"G"b2b "D""f#"afd|"E7"c2d "A"e3|"A"eAe efg|"D"f2g a2f|\
"G"gab "D""a"afd|"A"e3 "D"d3:|


